dist/img/svg/leaf_icon.svg

<svg xmlns="http://www.w3.org/2000/svg" viewBox="0 0 512 512"><path d="M479.94 46.51c-6.88 76.79-38.29 238.79-83.04 283.54-58.93 58.93-178.05 82.17-237.59 22.63a88.22 88.22 0 01-2.68-2.79c44.63-46.28 101.39-97.67 163.79-136.29 7.51-4.65 9.83-14.51 5.18-22.03-4.65-7.51-14.51-9.83-22.02-5.18-62.85 38.9-119.93 89.94-165.32 136.49-30.86-63.52-6.58-157.53 43.68-207.79 44.75-44.75 206.75-76.16 283.54-83.04.44-.04.86-.06 1.27-.06 4.7 0 7.83 2.4 9.34 3.91 1.65 1.64 4.33 5.21 3.85 10.61zm18.78-33.24C489.2 3.75 476.04-1.01 462.63.18c-34.26 3.06-95.92 12.16-156.95 27.69-72.8 18.53-122.04 40.26-146.37 64.6-34.63 34.62-58.96 86.8-65.1 139.57-3.17 27.31-1.5 53.23 4.98 77.04 3.77 13.87 9.1 26.63 15.9 38.21-9.42 10.2-18.17 20-26.17 29.21C35.86 437.57 4.01 485.12 2.68 487.12c-4.89 7.35-2.9 17.28 4.44 22.19 2.73 1.81 5.81 2.69 8.86 2.69a16 16 0 0013.33-7.13c.31-.47 32.03-47.84 83.77-107.38 6.68-7.69 13.91-15.82 21.61-24.24.66.69 1.32 1.38 1.99 2.06 17.76 17.75 40.04 30.37 66.23 37.49 16 4.36 32.96 6.54 50.65 6.54 8.63 0 17.44-.52 26.39-1.56 52.77-6.13 104.95-30.47 139.58-65.1 24.33-24.33 46.06-73.57 64.59-146.37 15.53-61.03 24.63-122.69 27.69-156.95a45.218 45.218 0 00-13.09-36.09"/></svg>

<svg xmlns="http://www.w3.org/2000/svg" viewBox="0 0 512 512">
	<style type="text/css">
		.st0{fill:#000000;}
	</style>
	<path class="st0" d="M479.94,46.51C473.06,123.3 441.65,285.3 396.9,330.05C337.97,388.98 218.85,412.22 159.31,352.68C158.4,351.77 157.5,350.84 156.63,349.89C201.26,303.61 258.02,252.22 320.42,213.6C327.93,208.95 330.25,199.09 325.6,191.57C320.95,184.06 311.09,181.74 303.58,186.39C240.73,225.29 183.65,276.33 138.26,322.88C107.4,259.36 131.68,165.35 181.94,115.09C226.69,70.34 388.69,38.93 465.48,32.05C465.92,32.01 466.34,31.99 466.75,31.99C471.45,31.99 474.58,34.39 476.09,35.9C477.74,37.54 480.42,41.11 479.94,46.51ZM498.72,13.27C489.2,3.75 476.04,-1.01 462.63,0.18C428.37,3.24 366.71,12.34 305.68,27.87C232.88,46.4 183.64,68.13 159.31,92.47C124.68,127.09 100.35,179.27 94.21,232.04C91.04,259.35 92.71,285.27 99.19,309.08C102.96,322.95 108.29,335.71 115.09,347.29C105.67,357.49 96.92,367.29 88.92,376.5C35.86,437.57 4.01,485.12 2.68,487.12C-2.21,494.47 -0.22,504.4 7.12,509.31C9.85,511.12 12.93,512 15.98,512C21.15,512 26.23,509.49 29.31,504.87C29.62,504.4 61.34,457.03 113.08,397.49C119.76,389.8 126.99,381.67 134.69,373.25C135.35,373.94 136.01,374.63 136.68,375.31C154.44,393.06 176.72,405.68 202.91,412.8C218.91,417.16 235.87,419.34 253.56,419.34C262.19,419.34 271,418.82 279.95,417.78C332.72,411.65 384.9,387.31 419.53,352.68C443.86,328.35 465.59,279.11 484.12,206.31C499.65,145.28 508.75,83.62 511.81,49.36C513.01,35.95 508.24,22.79 498.72,13.27"/>
</svg>
